X: 7
T: Inventio 7
C: Johann Sebastian Bach
%%abc-version 2.0
%%abcx-abcm2ps-target-version 5.9.1 (29 Sep 2008)
%%abc-creator hum2abc beta
%%abcx-conversion-date 2021/01/28 10:10:55
%%abc-copyright Copyright 1994, David Huron
%%abc-edited-by David Huron
%%abcx-initial-encoding-date 1986 November
%%gracespace 0 6 6
%%humdrum-veritas 808823768
%%humdrum-veritas-data 3111372100
%%linebreak <none>
%%barnumbers 0
L: 1/16
M: 4/4
N: Derived from inven07.krn
Q: 1/4=52
%%staves {1 2}
V: 1 clef=treble
V: 2 clef=bass
K: G
[V:1] z2 B A G F G E !uppermordent!B2 B2 !uppermordent!e3 f | 
[V:2] !uppermordent!E,2 E,,2z4z2 B, A, G, F, G, E, | 
[V:1] !mordent!^d2 f e =d ^c d B b2 a g2< !mordent!f2 e/ f/ | 
[V:2] B,2 B,,2z4z2 F E ^D ^C D B, | 
[V:1] g2 b a g f g e2< c'2 b a g f e | 
[V:2] E2 E,2z4z2 E D C B, C A, | 
[V:1] f2 a g f e f d2< b2 a g f e d | 
[V:2] D2 D,2z4z2 D C B, A, B, G, | 
[V:1] e f e d c B A G c B A B c d e f | 
[V:2] C2> B,2 A, G, F, E,2< A,2 G, F, E, D, C, | 
[V:1] g f e d2< !uppermordent!g2 g g f e f2< !mordent!f2 g | 
[V:2] B,,2> C,2 B,, A,, G,, F,, E,,2 C,2 D,2 D,,2 | 
[V:1] g2 d c B A B G!mordent!d8- | 
[V:2] G,,4z4z2 G,, A,, B,, A,, B,, G,, | 
[V:1] d16- | 
[V:2] D, ^C, D, E, F, E, F, D, G, F, G, A, B, A, B, F, | 
[V:1] d2> e2 !mordent!^c2> d2 d2 A G F E F D | 
[V:2] G, F, G, E, A,2 A,,2 D,2 D,,2z4 | 
[V:1] !uppermordent!c2> B2 c2> d2 !uppermordent!B2 B2 !uppermordent!e3 e | 
[V:2] z2 A, G, F, E, F, D, G, A, G, F, E, D, E, ^C, | 
[V:1] e g f e d ^c d B ^A2 f e d c d B | 
[V:2] F,2 ^A,,2 B,,2 G,,2F,,4z2 B, =A, | 
[V:1] e2 b =a g f g e ^a2 ^c2 f2 ^A2 | 
[V:2] G, F, G, E,2< D2 E ^C2 G F E D E C | 
[V:1] B2> ^c2 c2> B2 B2 d2 E2 d2 | 
[V:2] D ^C D B, F2 F,2 B, =C B, A, ^G, F, G, E, | 
[V:1] c2 A2 D2 c2 B2 d2 g2 B2 | 
[V:2] A, B, A, =G, F, E, F, D, G, A, G, F, E, D, E, ^C, | 
[V:1] A2 f2 G2 e2 !mordent!^d2 f e d ^c B A | 
[V:2] ^D, ^C, D, B,, E, D, E, E,,B,,8- | 
[V:1] G F G B e B A G F E F A ^d A G F | 
[V:2] B,,16- | 
[V:1] E ^D E G c G F E D ^C D F B2 B2 | 
[V:2] B,,8-B,,4-B,, C B, A, | 
[V:1] B4-B ^d e gA4-A ^c d f | 
[V:2] G, F, G, B, E B, A, G, F, E, F, A, ^D A, G, F, | 
[V:1] G4-G B ^d e F A B c ^D F G A | 
[V:2] E, ^D, E, G, C G, F, E, D,2 B,,2z4 | 
[V:1] B,2 A2- A F B F G2 E2 !uppermordent!c3 c | 
[V:2] z G, F, E, ^D, ^C, D, B,, E, =D, =C, B,, A,, G,, A,, F,, | 
[V:1] !mordent!c2 B2 g2> g2 g a g f2< !mordent!f2 e | 
[V:2] G,, A,, G,, F,, E,, D,, E,, C,, A,, G,, A,, F,, B,, A,, B,, G,, | 
[V:1] e d c B A G A F ^d2 F2 B3 c | 
[V:2] C,8-C, C B, A, G, F, G, E, | 
[V:1] !mordent!A2> G2 !mordent!F2> E2!fermata!E8 |]  
[V:2] ^D,2 E,2 B,2 B,,2!fermata!E,,8 |]  


